public/pieces/icpieces/wK.svg

<svg height="368" width="368" xmlns="http://www.w3.org/2000/svg"><path d="m177 119c-9.676 4.311-20.692 9.206-26 19-7.143-4.404-13.92-8.674-22-11.254-23.746-7.582-56.0278-2.903-70.3002 19.254-3.1644 4.913-5.1939 10.341-6.5686 16-1.648 6.784-2.5224 14.02-2.0417 21 1.2884 18.708 10.2892 36.827 20.7955 52 4.5409 6.558 11.6598 12.883 15.0903 20 2.9958 6.215-2.9194 8.684-5.8272 13.093-5.0774 7.7-1.3062 17.678 6.8519 20.907-1.8092 5.321-6.7145 8.601-8.3511 14.001-2.9292 9.664-.6489 22.929-.6489 32.999h212c0-10.07 2.28-23.335-.649-32.999-1.637-5.4-6.542-8.68-8.351-14.001 7.712-3.053 11.745-12.25 7.427-19.91-2.733-4.85-9.576-7.505-6.402-14.09 3.43-7.117 10.549-13.442 15.09-20 10.506-15.173 19.507-33.292 20.795-52 .481-6.98-.393-14.216-2.041-21-1.375-5.659-3.404-11.087-6.569-16-14.272-22.157-46.554-26.836-70.3-19.254-8.08 2.58-14.857 6.85-22 11.254-4.752-8.768-16.153-16.524-26-18 9.66-5.171 18.013-10.443 20.482-22 4.296-20.1061-14.489-38.3866-34.482-33.2392-27.344 7.0399-27.726 47.5922 0 54.2392z"/><path d="m180 74.5324c-22.588 5.3453-14.405 40.2366 8 34.9356 22.588-5.346 14.405-40.2375-8-34.9356m-1 54.9966c-5.952 1.373-11.599 5.528-15.98 9.645-1.86 1.748-4.325 3.991-3.689 6.826 1.318 5.871 8.998 12.787 12.244 18 3.012 4.838 5.243 10.159 8.302 14.941 1.038 1.624 2.612 3.961 4.888 3.307 4.718-1.354 8.076-12.335 10.439-16.248 2.91-4.82 6.033-9.532 9.46-14 1.492-1.944 4.165-4.343 4.133-7-.037-3.137-3.632-5.747-5.798-7.535-6.853-5.66-14.857-10.045-23.999-7.936m-82 123.471h82v-38c0-5.9 1.146-13.175-.314-18.91-1.053-4.137-4.951-8.241-6.944-12.09-7.121-13.745-15.19-28.596-27.742-38.1-26.499-20.065-76.6435-16.749-82.7037 22.1-.7073 4.534-1.5476 9.412-1.1258 14 1.6291 17.717 10.0405 34.679 20.257 49 5.1685 7.245 12.8456 13.997 16.5725 22m92 0h82c3.727-8.003 11.404-14.755 16.573-22 10.216-14.321 18.627-31.283 20.256-49 .427-4.635-.492-9.437-1.264-14-1.419-8.382-4.56-16.748-10.739-22.815-18.177-17.848-53.139-13.435-71.826.715-11.961 9.057-18.763 22.351-26 35.1-2.56 4.51-7.43 10.157-8.686 15.09-1.46 5.735-.314 13.01-.314 18.91zm-92 10c-.1935 2.559-.4286 4.645-2.3171 6.587-1.9366 1.992-6.0469 3.073-6.0471 6.409-.0003 3.348 3.9836 3.769 5.9313 5.588 2.1465 2.005 2.2832 4.683 2.4329 7.416h174c.15-2.733.286-5.411 2.433-7.416 1.946-1.817 5.931-2.24 5.931-5.585 0-3.335-3.959-3.917-5.931-5.722-2.153-1.971-2.284-4.561-2.433-7.277z" fill="#fff"/><path d="m180.094 267.858c-10.519 4.642-2.902 21.013 7.812 16.284 10.519-4.642 2.902-21.013-7.812-16.284z"/><path d="m88 326h192c0-8.157 2.812-21.479-6.005-25.972-3.702-1.887-8.968-1.028-12.995-1.028h-27-97-29c-4.285 0-10.0605-.977-13.9954 1.028-8.8171 4.493-6.0046 17.815-6.0046 25.972z" fill="#fff"/></svg>

<?xml version="1.0" standalone="yes"?>
<svg xmlns="http://www.w3.org/2000/svg" width="368" height="368">
<path style="fill:#000000; stroke:none;" d="M177 119C167.324 123.311 156.308 128.206 151 138C143.857 133.596 137.08 129.326 129 126.746C105.254 119.164 72.9722 123.843 58.6998 146C55.5354 150.913 53.5059 156.341 52.1312 162C50.4832 168.784 49.6088 176.02 50.0895 183C51.3779 201.708 60.3787 219.827 70.885 235C75.4259 241.558 82.5448 247.883 85.9753 255C88.9711 261.215 83.0559 263.684 80.1481 268.093C75.0707 275.793 78.8419 285.771 87 289C85.1908 294.321 80.2855 297.601 78.6489 303.001C75.7197 312.665 78 325.93 78 336L290 336C290 325.93 292.28 312.665 289.351 303.001C287.714 297.601 282.809 294.321 281 289C288.712 285.947 292.745 276.75 288.427 269.09C285.694 264.24 278.851 261.585 282.025 255C285.455 247.883 292.574 241.558 297.115 235C307.621 219.827 316.622 201.708 317.91 183C318.391 176.02 317.517 168.784 315.869 162C314.494 156.341 312.465 150.913 309.3 146C295.028 123.843 262.746 119.164 239 126.746C230.92 129.326 224.143 133.596 217 138C212.248 129.232 200.847 121.476 191 120C200.66 114.829 209.013 109.557 211.482 98C215.778 77.8939 196.993 59.6134 177 64.7608C149.656 71.8007 149.274 112.353 177 119z"/>
<path style="fill:#ffffff; stroke:none;" d="M180 74.5324C157.412 79.8777 165.595 114.769 188 109.468C210.588 104.122 202.405 69.2305 180 74.5324M179 129.529C173.048 130.902 167.401 135.057 163.02 139.174C161.16 140.922 158.695 143.165 159.331 146C160.649 151.871 168.329 158.787 171.575 164C174.587 168.838 176.818 174.159 179.877 178.941C180.915 180.565 182.489 182.902 184.765 182.248C189.483 180.894 192.841 169.913 195.204 166C198.114 161.18 201.237 156.468 204.664 152C206.156 150.056 208.829 147.657 208.797 145C208.76 141.863 205.165 139.253 202.999 137.465C196.146 131.805 188.142 127.42 179 129.529M97 253L179 253L179 215C179 209.1 180.146 201.825 178.686 196.09C177.633 191.953 173.735 187.849 171.742 184C164.621 170.255 156.552 155.404 144 145.9C117.501 125.835 67.3565 129.151 61.2963 168C60.589 172.534 59.7487 177.412 60.1705 182C61.7996 199.717 70.211 216.679 80.4275 231C85.596 238.245 93.2731 244.997 97 253M189 253L271 253C274.727 244.997 282.404 238.245 287.573 231C297.789 216.679 306.2 199.717 307.829 182C308.256 177.365 307.337 172.563 306.565 168C305.146 159.618 302.005 151.252 295.826 145.185C277.649 127.337 242.687 131.75 224 145.9C212.039 154.957 205.237 168.251 198 181C195.44 185.51 190.57 191.157 189.314 196.09C187.854 201.825 189 209.1 189 215L189 253M97 263C96.8065 265.559 96.5714 267.645 94.6829 269.587C92.7463 271.579 88.636 272.66 88.6358 275.996C88.6355 279.344 92.6194 279.765 94.5671 281.584C96.7136 283.589 96.8503 286.267 97 289L271 289C271.15 286.267 271.286 283.589 273.433 281.584C275.379 279.767 279.364 279.344 279.364 275.999C279.364 272.664 275.405 272.082 273.433 270.277C271.28 268.306 271.149 265.716 271 263L97 263z"/>
<path style="fill:#000000; stroke:none;" d="M180.094 267.858C169.575 272.5 177.192 288.871 187.906 284.142C198.425 279.5 190.808 263.129 180.094 267.858z"/>
<path style="fill:#ffffff; stroke:none;" d="M88 326L280 326C280 317.843 282.812 304.521 273.995 300.028C270.293 298.141 265.027 299 261 299L234 299L137 299L108 299C103.715 299 97.9395 298.023 94.0046 300.028C85.1875 304.521 88 317.843 88 326z"/>
</svg>
